X:1
T:Her golden hair hung down in ringlets
T:Her golden hair was curling down
T:Her lovely hair was curling down
T:By the Old Fairy Fort
S:Paul de Grae  irtrad-l 2001-5-24
D:Connie O'Connell, Ceol Chill na Martra
D:Jackie Daly, Domhnach is Da/lach
D:John Brosnan, The Cook in the Kitchen
R:hornpipe
M:4/4
L:1/8
K:D
(3ABc \
| dfde BAFA | dfed B2de | fAdf edBd | ~e2df edBA |
  ~d3A BAFA | dfed B2de | faaf edBA | ~d2dc d2 :|
|: dB \
  ABde ~f3e | dedB ADFA | ~G3A Bdef |  e2df edBA |
  dfed BAFA | dfed B2de | faaf edBA | ~d2dc d2 :||
